docs/assets/7f0cd21de0dcb848ffeec32785b39f54.svg

<svg viewBox="-28 0 512 512.00098" xmlns="http://www.w3.org/2000/svg"><path d="m104.359375 151.625h-86.3125c-9.675781 0-17.546875 7.871094-17.546875 17.546875v325.285156c0 9.671875 7.871094 17.542969 17.546875 17.542969h86.3125c9.671875 0 17.542969-7.871094 17.542969-17.542969v-325.285156c0-9.675781-7.871094-17.546875-17.542969-17.546875zm-12.5 330.332031h-61.316406v-300.289062h61.316406zm0 0"/><path d="m61.203125 0c-33.75 0-61.203125 27.453125-61.203125 61.199219 0 33.75 27.453125 61.203125 61.203125 61.203125 33.742187 0 61.199219-27.453125 61.199219-61.203125 0-33.746094-27.453125-61.199219-61.199219-61.199219zm0 92.359375c-17.183594 0-31.160156-13.976563-31.160156-31.160156 0-17.179688 13.976562-31.15625 31.160156-31.15625 17.179687 0 31.15625 13.976562 31.15625 31.15625 0 17.179687-13.976563 31.160156-31.15625 31.160156zm0 0"/><path d="m401.046875 189.761719c-20.632813-17.222657-46.863281-26.433594-73.832031-25.933594-16.75.308594-33.117188 4.347656-47.949219 11.660156v-7.101562c0-9.253907-7.503906-16.757813-16.757813-16.757813h-87.882812c-9.253906 0-16.757812 7.503906-16.757812 16.757813v326.855469c0 9.257812 7.503906 16.757812 16.757812 16.757812h89.617188c8.296874 0 15.023437-6.726562 15.023437-15.019531v-194.878907c0-16.683593 13.054687-30.800781 29.726563-31.296874 17.328124-.511719 31.585937 13.429687 31.585937 30.644531v195.84375c0 8.121093 6.585937 14.707031 14.707031 14.707031h86.128906c8.121094 0 14.707032-6.585938 14.707032-14.707031v-189.886719c0-45.546875-20.074219-88.429688-55.074219-117.644531zm25.03125 292.195312h-55.453125v-180.507812c0-33.46875-27.230469-60.699219-60.703125-60.699219-33.46875 0-60.699219 27.230469-60.699219 60.699219v180.507812h-61.3125v-300.289062h61.3125v21.832031h.019532c-.003907 3.539062 1.226562 7.09375 3.757812 9.957031 5.496094 6.210938 14.992188 6.789063 21.203125 1.289063 14.800781-13.101563 33.824219-20.515625 53.566406-20.882813 19.761719-.375 38.941407 6.367188 54.027344 18.960938 28.144531 23.492187 44.28125 57.964843 44.28125 94.582031zm0 0"/></svg>

<svg viewBox="-28 0 512 512.001" xmlns="http://www.w3.org/2000/svg"><path d="M104.36 151.625H18.046C8.37 151.625.5 159.496.5 169.172v325.285C.5 504.129 8.371 512 18.047 512h86.312c9.672 0 17.543-7.871 17.543-17.543V169.172c0-9.676-7.87-17.547-17.543-17.547zm-12.5 330.332H30.542V181.668h61.316zM61.203 0C27.453 0 0 27.453 0 61.2c0 33.75 27.453 61.202 61.203 61.202 33.742 0 61.2-27.453 61.2-61.203C122.402 27.453 94.948 0 61.202 0zm0 92.36c-17.183 0-31.16-13.977-31.16-31.16 0-17.18 13.977-31.157 31.16-31.157 17.18 0 31.156 13.977 31.156 31.156 0 17.18-13.976 31.16-31.156 31.16zm339.844 97.402c-20.633-17.223-46.863-26.434-73.832-25.934a113.183 113.183 0 0 0-47.95 11.66v-7.101c0-9.254-7.503-16.758-16.757-16.758h-87.883c-9.254 0-16.758 7.504-16.758 16.758v326.855c0 9.258 7.504 16.758 16.758 16.758h89.617c8.297 0 15.024-6.727 15.024-15.02V302.102c0-16.684 13.054-30.801 29.726-31.297 17.328-.512 31.586 13.43 31.586 30.644v195.844c0 8.121 6.586 14.707 14.707 14.707h86.13c8.12 0 14.706-6.586 14.706-14.707V307.406c0-45.547-20.074-88.43-55.074-117.644zm25.031 292.195h-55.453V301.449c0-33.469-27.23-60.699-60.703-60.699-33.469 0-60.7 27.23-60.7 60.7v180.507H187.91V181.668h61.313V203.5h.02a14.948 14.948 0 0 0 3.757 9.957c5.496 6.211 14.992 6.79 21.203 1.29a83.224 83.224 0 0 1 53.567-20.884c19.761-.375 38.94 6.367 54.027 18.961 28.144 23.492 44.281 57.965 44.281 94.582zm0 0"/></svg>
